packages/match-icons/product/svg/verify.svg

<svg fill="none" height="32" viewBox="0 0 32 32" width="32" xmlns="http://www.w3.org/2000/svg"><g fill="#394762"><path d="m16 30.38c-.3286.0011-.6542-.0628-.958-.1881s-.5797-.3094-.812-.5419l-13.35-13.36c-.56277-.5621-.87929979-1.3246-.88-2.12v-11.67c0-.66304.263392-1.29893.732233-1.767767.468837-.468841 1.104727-.732233 1.767767-.732233h27c.663 0 1.2989.263392 1.7678.732233.4688.468837.7322 1.104727.7322 1.767767v.67c-.0007.79538-.3172 1.55793-.88 2.12l-13.35 13.36c-.4716.4653-1.1075.7263-1.77.7263s-1.2984-.261-1.77-.7263l-4.94-4.94c-.1883-.1883-.29409-.4437-.29409-.71s.10579-.5217.29409-.71.4437-.2941.71-.2941.5217.1058.71.2941l4.94 4.94c.0449.0478.0991.086.1593.112.0602.0261.1251.0395.1907.0395s.1305-.0134.1907-.0395c.0602-.026.1144-.0642.1593-.112l13.36-13.35c.0927-.09344.166-.20426.2158-.32609.0497-.12184.075-.2523.0742-.38391v-.67c0-.13261-.0527-.25979-.1464-.35355-.0938-.09377-.221-.14645-.3536-.14645h-27c-.13261 0-.25979.05268-.35355.14645-.09377.09376-.14645.22094-.14645.35355v11.67c-.00076.1316.02446.2621.07423.3839.04976.1218.12309.2327.21577.3261l13.36 13.35c.0449.0478.0991.086.1593.112.0602.0261.1251.0395.1907.0395s.1305-.0134.1907-.0395c.0602-.026.1144-.0642.1593-.112l7.94-7.94c.1883-.1883.4437-.2941.71-.2941s.5217.1058.71.2941.2941.4437.2941.71-.1058.5217-.2941.71l-7.94 7.94c-.2323.2325-.5082.4166-.812.5419s-.6294.1892-.958.1881z"/><path d="m29 19.82c1.6569 0 3-1.3431 3-3 0-1.6568-1.3431-3-3-3s-3 1.3432-3 3c0 1.6569 1.3431 3 3 3z"/></g></svg>

<svg width="32" height="32" viewBox="0 0 32 32" fill="none" xmlns="http://www.w3.org/2000/svg">
<path d="M16 30.38C15.6714 30.3811 15.3458 30.3172 15.042 30.1919C14.7382 30.0666 14.4623 29.8825 14.23 29.65L0.88 16.29C0.31723 15.7279 0.000700208 14.9654 0 14.17L0 2.5C0 1.83696 0.263392 1.20107 0.732233 0.732233C1.20107 0.263392 1.83696 0 2.5 0L29.5 0C30.163 0 30.7989 0.263392 31.2678 0.732233C31.7366 1.20107 32 1.83696 32 2.5V3.17C31.9993 3.96538 31.6828 4.72793 31.12 5.29L17.77 18.65C17.2984 19.1153 16.6625 19.3763 16 19.3763C15.3375 19.3763 14.7016 19.1153 14.23 18.65L9.29 13.71C9.1017 13.5217 8.99591 13.2663 8.99591 13C8.99591 12.7337 9.1017 12.4783 9.29 12.29C9.4783 12.1017 9.7337 11.9959 10 11.9959C10.2663 11.9959 10.5217 12.1017 10.71 12.29L15.65 17.23C15.6949 17.2778 15.7491 17.316 15.8093 17.342C15.8695 17.3681 15.9344 17.3815 16 17.3815C16.0656 17.3815 16.1305 17.3681 16.1907 17.342C16.2509 17.316 16.3051 17.2778 16.35 17.23L29.71 3.88C29.8027 3.78656 29.876 3.67574 29.9258 3.55391C29.9755 3.43207 30.0008 3.30161 30 3.17V2.5C30 2.36739 29.9473 2.24021 29.8536 2.14645C29.7598 2.05268 29.6326 2 29.5 2H2.5C2.36739 2 2.24021 2.05268 2.14645 2.14645C2.05268 2.24021 2 2.36739 2 2.5V14.17C1.99924 14.3016 2.02446 14.4321 2.07423 14.5539C2.12399 14.6757 2.19732 14.7866 2.29 14.88L15.65 28.23C15.6949 28.2778 15.7491 28.316 15.8093 28.342C15.8695 28.3681 15.9344 28.3815 16 28.3815C16.0656 28.3815 16.1305 28.3681 16.1907 28.342C16.2509 28.316 16.3051 28.2778 16.35 28.23L24.29 20.29C24.4783 20.1017 24.7337 19.9959 25 19.9959C25.2663 19.9959 25.5217 20.1017 25.71 20.29C25.8983 20.4783 26.0041 20.7337 26.0041 21C26.0041 21.2663 25.8983 21.5217 25.71 21.71L17.77 29.65C17.5377 29.8825 17.2618 30.0666 16.958 30.1919C16.6542 30.3172 16.3286 30.3811 16 30.38V30.38Z" fill="#394762"/>
<path d="M29 19.82C30.6569 19.82 32 18.4769 32 16.82C32 15.1632 30.6569 13.82 29 13.82C27.3431 13.82 26 15.1632 26 16.82C26 18.4769 27.3431 19.82 29 19.82Z" fill="#394762"/>
</svg>
